src/assets/images/brands/li.svg

<svg width="40" height="40" viewBox="0 0 40 40" fill="none" xmlns="http://www.w3.org/2000/svg">
<g filter="url(#filter0_d)">
<path d="M31.9989 16C31.9989 9.37234 26.6263 4 19.9997 4C13.371 4 7.99902 9.37218 7.99902 16C7.99902 22.6268 13.3712 28 19.9997 28C26.6265 28 31.9989 22.6268 31.9989 16Z" fill="#3D83D9"/>
<path d="M17.063 13.0703H14.2852V21.0091H17.063V13.0703Z" fill="white"/>
<path d="M15.6742 9.10156C14.804 9.10156 14.1229 9.90117 14.3191 10.8019C14.4331 11.3251 14.8598 11.7457 15.3849 11.8511C16.2803 12.031 17.063 11.3532 17.063 10.4906C17.063 9.7247 16.4424 9.10156 15.6742 9.10156Z" fill="white"/>
<path d="M26.1928 15.5091C26.006 14.0128 25.2575 13.0703 23.2348 13.0703C21.7992 13.0703 21.2284 13.2942 20.8992 13.9209V13.0703H18.6504V21.0091H20.9647V16.8535C20.9647 15.8161 21.1612 15.0325 22.4439 15.0325C23.7082 15.0325 23.8098 15.9969 23.8098 16.9208V21.0093H26.193C26.1928 21.0093 26.2369 15.8588 26.1928 15.5091Z" fill="white"/>
</g>
<defs>
<filter id="filter0_d" x="-0.000976562" y="0" width="39.9998" height="40" filterUnits="userSpaceOnUse" color-interpolation-filters="sRGB">
<feFlood flood-opacity="0" result="BackgroundImageFix"/>
<feColorMatrix in="SourceAlpha" type="matrix" values="0 0 0 0 0 0 0 0 0 0 0 0 0 0 0 0 0 0 127 0" result="hardAlpha"/>
<feOffset dy="4"/>
<feGaussianBlur stdDeviation="4"/>
<feColorMatrix type="matrix" values="0 0 0 0 0 0 0 0 0 0.0627451 0 0 0 0 0.160784 0 0 0 0.1 0"/>
<feBlend mode="normal" in2="BackgroundImageFix" result="effect1_dropShadow"/>
<feBlend mode="normal" in="SourceGraphic" in2="effect1_dropShadow" result="shape"/>
</filter>
</defs>
</svg>

<svg width="40" height="40" fill="none" xmlns="http://www.w3.org/2000/svg"><g filter="url(#a)"><path d="M31.999 16c0-6.628-5.373-12-12-12S8 9.372 8 16c0 6.627 5.372 12 12 12s12-5.373 12-12Z" fill="#3D83D9"/><path d="M17.063 13.07h-2.778v7.94h2.778v-7.94Zm-1.389-3.968a1.39 1.39 0 0 0-.29 2.75 1.39 1.39 0 1 0 .29-2.75Zm10.519 6.408c-.187-1.497-.936-2.44-2.958-2.44-1.436 0-2.007.224-2.336.85v-.85H18.65v7.94h2.315v-4.157c0-1.037.196-1.82 1.479-1.82 1.264 0 1.366.964 1.366 1.888v4.088h2.383s.044-5.15 0-5.5Z" fill="#fff"/></g><defs><filter id="a" x="-.001" y="0" width="40" height="40" filterUnits="userSpaceOnUse" color-interpolation-filters="sRGB"><feFlood flood-opacity="0" result="BackgroundImageFix"/><feColorMatrix in="SourceAlpha" values="0 0 0 0 0 0 0 0 0 0 0 0 0 0 0 0 0 0 127 0" result="hardAlpha"/><feOffset dy="4"/><feGaussianBlur stdDeviation="4"/><feColorMatrix values="0 0 0 0 0 0 0 0 0 0.0627451 0 0 0 0 0.160784 0 0 0 0.1 0"/><feBlend in2="BackgroundImageFix" result="effect1_dropShadow"/><feBlend in="SourceGraphic" in2="effect1_dropShadow" result="shape"/></filter></defs></svg>
